X:1
T:8 Lieder und Gesänge, Op.59
T:Mein wundes Herz
T:8 Lieder und Gesänge, Op.59
T:7. Mein wundes Herz
T:Johannes Brahms
T:Klaus Groth
T:Creative Commons copyright waiver (CC0 1.0 Universal)
T:Creative Commons copyright waiver (CC0 1.0 Universal)
T:Creative Commons copyright waiver (CC0 1.0 Universal)
C:Johannes Brahms
Z:Klaus Groth
Z:Creative Commons copyright waiver (CC0 1.0 Universal)
%%score 1 { 2 | ( 3 4 ) }
L:1/8
Q:1/4=160
M:4/4
K:G
V:1 treble nm="Singstimme\nVoice"
V:2 treble nm="Pianoforte"
V:3 bass 
V:4 bass 
V:1
"^Bewegt." z8 | z8 | z8 | z8 | z2!mf! B2 G2 F2 | E2 B2 g2 e2 | d6 c2 | B4 z2 B2 |"^cresc." ^c6 c2 | %9
w: ||||Mein wun- des|Herz ver- langt nach|mil- der|Ruh, o|hau- .che|
 ^d6 e2 |!f! f6 z2 | z8 | z2!mp!!<(! F2 A2 B2 | c2 F2 c4- | c2 ^c2 d2 e2!<)! | %15
w: sie ihm|ein!||Es fliegt dir|wei- nend, ban-|* ge schla- gend|
!f! (e2 d2) z2!mp! =c2 | B3 B e2 ^c2 | d4 z2 =c2 | B6 B2 |!f! e6 F2 | G2 z2 z4 | z8 | z8 | z8 | %24
w: zu, _ o|hül- le du es|ein, o|hül- le|du es|ein!||||
 z2!mf! B2 G2 F2 | E2 B2 g2 e2 | d6 c2 | B4 z2 B2 |!<(! ^c6 c2 | ^d6 e2!<)! |!ff! f6 z2 || %31
w: Wie wenn ein|Strahl durch schwe- re|Wol- ken|bricht, so|win- kest|du ihm|zu:|
[K:E] z8 | z2!p! c2 A2 G2 | F2 z2 z2 e2 | e2 c2 A2 G2 | F2 z2 z2!<(! e2 | (c2 B2) (^A2 c2) | %37
w: |O läch- le|fort mit|dei- nem mil- den|Licht, mit|dei\-- * nem _|
 (f2 e2) (d2 c2)!<)! |!f! B4 z2 ^B2 |!<(! c3 c f2 d2 | (e2 B2) z2 ^B2 | (d2 c2) z2 d2 | %42
w: mil- * den _|Licht! Mein|Pol, mein Stern bist|du, * mein|Pol, * mein|
 (f4!<)!!ff! e2) z2 | z4!mp! B4 | G4 F4 | E4 z4 | z8 | z8 | !fermata!z8 |] %49
w: Stern, *|mein|Stern bist|du!||||
V:2
 z (CA)(A, F)(G,E)(F,- | [F,^D]2) z2 z (E,[A,E]) (F, | [A,^D]2) z2 z!<(! (E[Ae]) (^E-!<)! | %3
!>(! ([EA-^e]4) [FAf]2)!>)! z2 | z8 | z"_poco "!mp![I:staff +1] (B,G,F, E,B,[I:staff -1]GE) | %6
[I:staff +1] (F,A,[I:staff -1]FD[I:staff +1] F,B,[I:staff -1]FD) | %7
[I:staff +1] (G,[I:staff -1]DBG G,DBG) | (B,^CB!<(!F B,CBF) | (B,^DBF ^A,E^AE) | %10
 (=A,[^DF=A])!<)!!f! (af^d!>(!=cAG) | (GF)!>)! z!p![I:staff +1] (C2 A,2 G,-) | G,(F,A,B, CA,F,E,) | %13
!p!!<(! (^D,F,CA, D,A,CG,) | (F,A,CA, D,F,DA,)!<)! | %15
!mf!!>(![I:staff -1] z[I:staff +1] (D,DG,)[I:staff -1] z[I:staff +1] (C,C!>)!!p!F,) | %16
[I:staff -1] z!p![I:staff +1] (B,,B,G,)[I:staff -1] z[I:staff +1] (_B,[I:staff -1]_BE) | %17
 z (A,AD) z (=CAF) | z (B,GE) z!p!!<(! (B,GE)!<)! | %19
!mf!!>(! z[I:staff +1] (G,[I:staff -1]EA,) z[I:staff +1] (F,!>)!!p!=CA,) | %20
"^cresc."[I:staff -1] z[I:staff +1] (B,[I:staff -1]G)[I:staff +1](G,[I:staff -1] E)[I:staff +1](=F,[I:staff -1]D)[I:staff +1](E, | %21
[I:staff -1] D) (CA)[I:staff +1](A,[I:staff -1] ^F)[I:staff +1](G,[I:staff -1]E)[I:staff +1](F, | %22
[I:staff -1] E) (^Dc)(F A) (E[Af]) (F- |!f! [F-A-e]4 [FA^d]2) z2 | z8 | %25
 z"_poco "!mp![I:staff +1] (B,G,F, E,B,[I:staff -1]GE) | %26
[I:staff +1] (F,A,[I:staff -1]FD[I:staff +1] F,B,[I:staff -1]FD) | %27
[I:staff +1] (G,[I:staff -1]DBG G,DBG) | (B,^CB!<(!F B,CBF) | (B,^DBF ^A,E^AE) | %30
 (=A,[^DF=A])!<)!!f! (af ^d^cA^G) ||[K:E] (GF)!f!!>(! z (c2 A2 G- | G2!>)!!p! F6-) | %33
 F!p!(cAG FceE-) | E(ceE-) E(ceE-) | E(c^AG FceE-) | E(e[B^e]^E-) E(e[^Acf]F-) | %37
 ([F=A-f]2 [EAe]2 [FAd]2 [DFc]2) | z (B,BE) z (Ee^B) | z (CcE) z (Df=c) | z (B,BE) z (Ee^B) | %41
 z (CcE) z (Df^B) | z4 z (CcE) | z (^A,^AE) z (B,BG | E[I:staff +1]B,G,E,-) (E,C,D,B,- | %45
 B,E,!<(!G,[I:staff -1]E- EA,Dc-) | c2!<)!!>(! ([EAe]4!>)! [FAc]2) | [GB]4 [G,B,G]4 | %48
 !fermata![G,B,E]8 |] %49
V:3
!f! (A,,,2 A,,2- [A,,C,]2 [^A,,^C,]2) | (B,,,B,,^D,)!>(! (A,!>)! C,4) | %2
 (B,,,B,,^D,)!>(! (A,!>)! C,4) | B,,,2 [B,,^D,A,]4 z2 | z8 | z8 | z2 (D,2 B,,2 A,,2 | %7
 G,,2 D,2 B,2 G,2) | (F,2 F,,2 F,2 E,2) | (^D,2 F,,2 D,2 ^C,2) | (B,,2 B,,,2) z4 | %11
 z2 (A,2 F,2 E,2 | ^D,2) z2 z4 | ^D,4 D,2 E,2 | F,4 D,4 | (B,,,2 F,,2) (A,,,2 A,,2) | %16
 (G,,,2 G,,2 ^C,2 E,2) | (D,2 F,2) (A,,2 ^D,2) | (G,,2 E,2) (G,,2 D,2) | (A,,2 ^C,2) (A,,2 D,2) | %20
 G,,,2 G,,2- [G,,B,,]2 [^G,,B,,]2 | A,,,2 A,,2- [A,,C,]2 [^A,,^C,]2 | %22
!<(! (B,,,2 B,,2) (C,,2 C,2)!<)! |!f!!>(! B,,,2 [B,,F,A,]4!>)! z2 | z8 | z8 | z2 (D,2 B,,2 A,,2 | %27
 G,,2 D,2 B,2 G,2) | x2 F,,6 | x2 F,,6 | (B,,2 B,,,2) z4 ||[K:E] z2 E6- | E8- | E2 (C2 A,2 G,2 | %34
 F,4) z4 | z2 (C2 ^A,2 G,2 |!p!!<(! F,8) | (D,,D,C,,C, B,,,B,,A,,!<)!!mf!B,,) | %38
"^poco cresc." (G,,2 E,2) (G,2 ^B,2) | (A,,2 E,2) (A,2!<(! =C2) | (G,,2 E,2) (G,2 ^B,2) | %41
 (A,,2 E,2) (A,2 ^B,2)!<)! |!ff! z4!p!!<(! ([A,,E,-]4!<)! |!>(! [^^F,,E,-]4!>)! [G,,E,]4) | %44
 z4 ([B,,,B,,]4 | [G,,,G,,]4 [F,,,F,,]4) | [E,,,E,,]2 [E,A,]6 | [E,B,E]4!p! [E,,B,,E,]4 | %48
 !fermata![E,,,E,,]8 |] %49
V:4
 x8 | x8 | x8 | x8 | x8 | x8 | x8 | x8 | x8 | x8 | x8 | x8 | x8 | z2 (A,,2 F,,2 E,,2 | %14
 =D,,4) =C,,4 | x8 | x4 G,,4 | F,,4 ^D,,4 | E,,4 =D,,4 | ^C,,4 D,,4 | x8 | x8 | x8 | x8 | x8 | x8 | %26
 x8 | x8 | (F,2 F,,2 F,2 E,2) | (^D,2 F,,2 D,2 ^C,2) | x8 ||[K:E] x2 (E2 C2 B,2 | A,8-) | %33
 A,2 z2 z2 (C,2 | A,,2 G,,2 F,,4) | z4 z2 (C,2 | ^A,,2 G,,2 F,,2 E,,2) | D,,2 C,,2 B,,,2 A,,2 | %38
 x8 | x8 | x8 | x8 | x8 | x8 | x8 | x8 | x2 (C4 D2) | x8 | x8 |] %49

